X: 1834
T: Are You Willing?
R: reel
M: 4/4
K: Amajor
|:A3E FAEA|A/A/A cA BABc|A3E FAEA|a2ec BABc|
A3E FAEA|A/A/A cA BABc|defg a2ae|fdBe cA A/A/A:|
|:a3e fece|d/c/B cA BAFA|a3e fgae|fdBe cA A/A/A|
aece fece|d/c/B cA BAFD|A,CEA ceae|fdBe cA A2:|

